X: 113
T: A Root of Herb
C: Teton Sioux band 1911-1914
N: Derived from sioux113.krn
O: South Dakota, U.S.A.
N: Teton Sioux Music by Frances Densmore, 1918
Z: transcribed to **kern format by Craig Sapp
L: 1/8
M: 2/4
Q: 1/4=58
K: Eb clef=bass
%%linebreak <none>
E/ E3/ [I:setbarnb 1]| 
E> EE2 ||  
[M:3/4]D2D2D2 ||  
[M:2/4]C< CC2- | 
C2E/ E3/ | 
E> EE2 ||  
[M:3/4]D2D2D2 | 
C< CC2C/ C3/ ||  
[M:2/4]C> CC2 ||  
[M:3/4]C> G,G,2D/ D/ D | 
(C6-C G,) [I:setbarnb 10]||  
[M:2/4]G,2G,/ G,3/ | 
G,< G,(G,2 | 
G,2)G,/ G,3/ | 
G,> G,C2 ||  
[M:3/4]C2C4 ||  
[M:2/4]C2C2 | 
C< CC2- | 
C2C/ C3/ | 
C> CC2 ||  
[M:3/4]C> G,G,2(3D D D | 
(C4-C G,) ||  
[M:2/4]G,2G,/ G,3/ | 
G,< G,G,2- | 
G,2E,/ E,3/ | 
E,> E,E,2 ||  
[M:3/4]D,2D,2D,2 | 
C,< C,C,4 |]  



